src/images/svg/symbols/index75s1-new.svg

<svg width="32" height="32" viewBox="0 0 32 32" fill="none" xmlns="http://www.w3.org/2000/svg">
<path d="M22.5 13.0001H24V22H22.5V32H21.5V22H20V13.0001H21.5V11.0001H22.5V13.0001Z" fill="#85ACB0"/>
<path d="M30 11V18H28.5V22H27.5V18H26V11H30Z" fill="#85ACB0"/>
<path d="M16.5 20V16H15.5V20H14V28H15.5V30H16.5V28H18V20H16.5Z" fill="#85ACB0"/>
<path d="M10.5 15H12V21H10.5V28H9.5V21H8V15H9.5V13H10.5V15Z" fill="#85ACB0"/>
<path d="M4.5 19H6V23H4.5V25H3.5V23H2V19H3.5V17H4.5V19Z" fill="#85ACB0"/>
<path d="M22 5C22 2.23858 24.2386 0 27 0C29.7614 0 32 2.23858 32 5C32 7.76142 29.7614 10 27 10C24.2386 10 22 7.76142 22 5Z" fill="#FF444F"/>
<path d="M24.2524 7.0005V6.2745H25.3804V3.4665H25.3264L24.4744 4.5825L23.8984 4.1325L24.9004 2.8125H26.2804V6.2745H27.1684V7.0005H24.2524Z" fill="white"/>
<path d="M28.7681 7.0725C28.4641 7.0725 28.2081 7.0245 28.0001 6.9285C27.7921 6.8285 27.6061 6.6885 27.4421 6.5085L27.9641 5.9805C28.0761 6.1045 28.2001 6.2025 28.3361 6.2745C28.4721 6.3465 28.6261 6.3825 28.7981 6.3825C28.9741 6.3825 29.0961 6.3565 29.1641 6.3045C29.2321 6.2485 29.2661 6.1745 29.2661 6.0825C29.2661 5.9345 29.1601 5.8465 28.9481 5.8185L28.6061 5.7765C27.8981 5.6885 27.5441 5.3645 27.5441 4.8045C27.5441 4.6525 27.5721 4.5145 27.6281 4.3905C27.6881 4.2625 27.7701 4.1545 27.8741 4.0665C27.9821 3.9745 28.1101 3.9045 28.2581 3.8565C28.4101 3.8045 28.5801 3.7785 28.7681 3.7785C28.9321 3.7785 29.0761 3.7905 29.2001 3.8145C29.3281 3.8345 29.4401 3.8665 29.5361 3.9105C29.6361 3.9505 29.7261 4.0025 29.8061 4.0665C29.8901 4.1265 29.9721 4.1945 30.0521 4.2705L29.5421 4.7925C29.4421 4.6925 29.3281 4.6145 29.2001 4.5585C29.0761 4.4985 28.9481 4.4685 28.8161 4.4685C28.6641 4.4685 28.5561 4.4925 28.4921 4.5405C28.4281 4.5885 28.3961 4.6525 28.3961 4.7325C28.3961 4.8165 28.4181 4.8825 28.4621 4.9305C28.5101 4.9745 28.5981 5.0065 28.7261 5.0265L29.0801 5.0745C29.7721 5.1665 30.1181 5.4825 30.1181 6.0225C30.1181 6.1745 30.0861 6.3145 30.0221 6.4425C29.9581 6.5705 29.8661 6.6825 29.7461 6.7785C29.6301 6.8705 29.4881 6.9425 29.3201 6.9945C29.1561 7.0465 28.9721 7.0725 28.7681 7.0725Z" fill="white"/>
<path d="M0 2C0 0.89543 0.895431 0 2 0H12C13.1046 0 14 0.895431 14 2V8C14 9.10457 13.1046 10 12 10H2C0.89543 10 0 9.10457 0 8V2Z" fill="#0E0E0E"/>
<path d="M3.53058 8.00002L5.40258 3.39202H3.65858V4.40802H2.64258V2.41602H6.59458V3.45602L4.79458 8.00002H3.53058Z" fill="white"/>
<path d="M11.1755 3.46402H8.63945L8.51945 5.23202H8.58345C8.63679 5.09868 8.69545 4.97868 8.75945 4.87202C8.82879 4.76002 8.90879 4.66668 8.99945 4.59202C9.09012 4.51202 9.19945 4.45068 9.32745 4.40802C9.45545 4.36535 9.60745 4.34402 9.78345 4.34402C10.0235 4.34402 10.2475 4.38402 10.4555 4.46402C10.6635 4.54402 10.8448 4.66135 10.9995 4.81602C11.1541 4.96535 11.2768 5.15202 11.3675 5.37602C11.4581 5.59468 11.5035 5.84268 11.5035 6.12002C11.5035 6.40268 11.4555 6.66668 11.3595 6.91202C11.2688 7.15202 11.1301 7.36002 10.9435 7.53602C10.7621 7.71202 10.5381 7.85068 10.2715 7.95202C10.0048 8.04802 9.70079 8.09602 9.35945 8.09602C9.08745 8.09602 8.84745 8.06668 8.63945 8.00802C8.43145 7.94935 8.24745 7.87202 8.08745 7.77602C7.92745 7.67468 7.78879 7.56002 7.67145 7.43202C7.55412 7.30402 7.45279 7.16802 7.36745 7.02402L8.23945 6.33602C8.36212 6.55468 8.50879 6.74135 8.67945 6.89602C8.85012 7.04535 9.07945 7.12002 9.36745 7.12002C9.65545 7.12002 9.87145 7.03735 10.0155 6.87202C10.1648 6.70668 10.2395 6.48802 10.2395 6.21602V6.15202C10.2395 5.89602 10.1648 5.69335 10.0155 5.54402C9.86612 5.39468 9.66079 5.32002 9.39945 5.32002C9.18079 5.32002 8.99945 5.36535 8.85545 5.45602C8.71679 5.54135 8.61012 5.62668 8.53545 5.71202L7.55145 5.57602L7.75945 2.41602H11.1755V3.46402Z" fill="white"/>
</svg>

<svg width="32" height="32" fill="none" xmlns="http://www.w3.org/2000/svg"><path d="M22.5 13H24v9h-1.5v10h-1V22H20v-9h1.5v-2h1v2ZM30 11v7h-1.5v4h-1v-4H26v-7h4ZM16.5 20v-4h-1v4H14v8h1.5v2h1v-2H18v-8h-1.5ZM10.5 15H12v6h-1.5v7h-1v-7H8v-6h1.5v-2h1v2ZM4.5 19H6v4H4.5v2h-1v-2H2v-4h1.5v-2h1v2Z" fill="#85ACB0"/><path d="M22 5a5 5 0 1 1 10 0 5 5 0 0 1-10 0Z" fill="#FF444F"/><path d="M24.252 7v-.726h1.128V3.466h-.054l-.852 1.116-.576-.45 1.002-1.32h1.38v3.462h.888V7h-2.916ZM28.768 7.072c-.304 0-.56-.048-.768-.144-.208-.1-.394-.24-.558-.42l.522-.527c.112.123.236.221.372.293.136.072.29.109.462.109.176 0 .298-.027.366-.079a.273.273 0 0 0 .102-.222c0-.147-.106-.236-.318-.263l-.342-.042c-.708-.088-1.062-.413-1.062-.973 0-.152.028-.29.084-.413a.942.942 0 0 1 .246-.325c.108-.091.236-.161.384-.21.152-.051.322-.077.51-.077.164 0 .308.012.432.035.128.02.24.052.336.096.1.04.19.093.27.156.084.06.166.128.246.205l-.51.522c-.1-.1-.214-.179-.342-.234a.872.872 0 0 0-.384-.09c-.152 0-.26.023-.324.071a.228.228 0 0 0-.096.192c0 .084.022.15.066.199.048.043.136.075.264.096l.354.047c.692.093 1.038.409 1.038.949a.926.926 0 0 1-.096.42c-.064.128-.156.24-.276.336a1.293 1.293 0 0 1-.426.216 1.822 1.822 0 0 1-.552.077Z" fill="#fff"/><path d="M0 2a2 2 0 0 1 2-2h10a2 2 0 0 1 2 2v6a2 2 0 0 1-2 2H2a2 2 0 0 1-2-2V2Z" fill="#0E0E0E"/><path d="m3.53 8 1.873-4.608H3.659v1.016H2.643V2.416h3.952v1.04L4.795 8H3.53ZM11.175 3.464H8.64l-.12 1.768h.064c.054-.133.112-.253.176-.36.07-.112.15-.205.24-.28.091-.08.2-.141.328-.184.128-.043.28-.064.456-.064.24 0 .465.04.673.12a1.602 1.602 0 0 1 .912.912c.09.219.136.467.136.744 0 .283-.048.547-.144.792-.091.24-.23.448-.416.624a1.94 1.94 0 0 1-.673.416c-.266.096-.57.144-.912.144-.272 0-.512-.03-.72-.088a2.261 2.261 0 0 1-.552-.232 2.043 2.043 0 0 1-.416-.344 2.457 2.457 0 0 1-.304-.408l.872-.688c.123.219.27.405.44.56.171.15.4.224.688.224.288 0 .504-.083.648-.248.15-.165.224-.384.224-.656v-.064c0-.256-.074-.459-.224-.608-.149-.15-.354-.224-.616-.224-.218 0-.4.045-.544.136-.138.085-.245.17-.32.256l-.984-.136.208-3.16h3.416v1.048Z" fill="#fff"/></svg>
